src/assets/demo.svg

<?xml version="1.0" encoding="UTF-8"?>
<!DOCTYPE svg  PUBLIC '-//W3C//DTD SVG 1.1//EN'  'http://www.w3.org/Graphics/SVG/1.1/DTD/svg11.dtd'>
<svg width="800px" height="800px" fill="none" stroke="#ffffff" viewBox="-2.4 -2.4 28.8 28.8" xmlns="http://www.w3.org/2000/svg">
<g clip-path="url(#a)">
<path d="m7.8 12h-0.75 0.75zm8.4 0h0.75-0.75zm-4.2 4.2v0.75-0.75zm2.1729 6.0749 0.1544 0.7339-0.1544-0.7339zm-4.3458 0-0.15443 0.7339 0.15443-0.7339zm-7.5516-14.243-0.69432-0.28358 0.69432 0.28358zm-0.55044 6.1406-0.73393 0.1544 0.73393-0.1544zm8.102-12.448-0.15443-0.73393 0.15443 0.73393zm4.3458 0 0.1544-0.73393-0.1544 0.73393zm7.467 6.345 0.2177 0.71771-0.2177-0.71771zm-19.281-3.8e-4 -0.21771 0.71771 0.21771-0.71771zm18.672 0.24874c0.4632 1.1349 0.7188 2.3774 0.7188 3.6815h1.5c0-1.5017-0.2947-2.9365-0.83-4.2483l-1.3888 0.56676zm0.7188 3.6815c0 0.6927-0.0721 1.3678-0.209 2.0184l1.4678 0.3089c0.1582-0.7516 0.2412-1.5301 0.2412-2.3273h-1.5zm-0.209 2.0184c-0.7921 3.7643-3.7582 6.7305-7.5226 7.5226l0.3089 1.4678c4.3462-0.9145 7.767-4.3353 8.6815-8.6815l-1.4678-0.3089zm-7.5226 7.5226c-0.6506 0.1369-1.3257 0.209-2.0184 0.209v1.5c0.7972 0 1.5757-0.083 2.3273-0.2412l-0.3089-1.4678zm-2.0184 0.209c-0.6928 0-1.3678-0.0721-2.0184-0.209l-0.30887 1.4678c0.75151 0.1582 1.5301 0.2412 2.3273 0.2412v-1.5zm-9.75-9.75c0-1.3051 0.25601-2.5485 0.71986-3.6842l-1.3886-0.56717c-0.53612 1.3126-0.83122 2.7484-0.83122 4.2513h1.5zm7.7316 9.541c-3.7643-0.7921-6.7304-3.7583-7.5225-7.5226l-1.4679 0.3089c0.91454 4.3462 4.3353 7.767 8.6815 8.6815l0.30887-1.4678zm-7.5225-7.5226c-0.1369-0.6506-0.20903-1.3257-0.20903-2.0184h-1.5c0 0.7972 0.08303 1.5757 0.24117 2.3273l1.4679-0.3089zm0.51083-5.7026c1.2072-2.9557 3.824-5.186 7.0117-5.8568l-0.30886-1.4679c-3.6824 0.77485-6.699 3.3482-8.0915 6.7575l1.3886 0.56717zm7.0117-5.8568c0.65065-0.1369 1.3256-0.20903 2.0184-0.20903v-1.5c-0.7972 0-1.5758 0.08303-2.3273 0.24117l0.30886 1.4679zm2.0184-0.20903c0.6927 0 1.3678 0.07213 2.0184 0.20903l0.3089-1.4679c-0.7516-0.15814-1.5301-0.24117-2.3273-0.24117v1.5zm2.0184 0.20903c3.1887 0.67097 5.8061 2.9025 7.0128 5.8595l1.3888-0.56676c-1.3919-3.4108-4.4092-5.9855-8.0927-6.7606l-0.3089 1.4679zm-0.56-0.50594c0.2898 0.90831 1.3631 4.4031 1.8031 7.6151l1.4861-0.20359c-0.4586-3.348-1.5663-6.9463-1.8602-7.8675l-1.429 0.45597zm1.8031 7.6151c0.118 0.861 0.1885 1.6886 0.1885 2.4318h1.5c0-0.8319-0.0785-1.731-0.2024-2.6354l-1.4861 0.20359zm6.1607-2.2158c-1.153 0.3497-3.3189 0.96398-5.5537 1.3764l0.2722 1.4751c2.3139-0.4271 4.5402-1.0593 5.7169-1.4162l-0.4354-1.4354zm-5.5537 1.3764c-1.3556 0.25018-2.7106 0.42114-3.8685 0.42114v1.5c1.2874 0 2.743-0.1881 4.1407-0.446l-0.2722-1.4751zm-0.4185 3.2711c0 1.1009-0.1546 2.3808-0.3853 3.671l1.4766 0.264c0.2384-1.3331 0.4087-2.7098 0.4087-3.935h-1.5zm-0.3853 3.671c-0.5056 2.8282-1.355 5.5883-1.6063 6.3759l1.429 0.456c0.2576-0.8073 1.1307-3.6416 1.6539-6.5679l-1.4766-0.264zm6.9822-2.2126c-0.7876 0.2513-3.5477 1.1007-6.3759 1.6063l0.264 1.4766c2.9263-0.5232 5.7606-1.3963 6.5679-1.6539l-0.456-1.429zm-6.3759 1.6063c-1.2902 0.2307-2.5701 0.3853-3.671 0.3853v1.5c1.2252 0 2.6019-0.1703 3.935-0.4087l-0.264-1.4766zm-3.671 0.3853c-1.1009 0-2.3808-0.1546-3.671-0.3853l-0.26401 1.4766c1.3331 0.2384 2.7098 0.4087 3.935 0.4087v-1.5zm-3.671-0.3853c-2.8282-0.5056-5.5883-1.355-6.3759-1.6063l-0.45597 1.429c0.80725 0.2576 3.6416 1.1307 6.5678 1.6539l0.26401-1.4766zm-1.279-3.0647c0 1.2252 0.17032 2.6019 0.40867 3.935l1.4766-0.264c-0.2307-1.2902-0.38526-2.5701-0.38526-3.671h-1.5zm0.40867 3.935c0.52321 2.9263 1.3964 5.7606 1.6539 6.5679l1.429-0.456c-0.2513-0.7876-1.1007-3.5477-1.6063-6.3759l-1.4766 0.264zm1.6539-14.438c-0.29394 0.92123-1.4016 4.5195-1.8603 7.8675l1.4861 0.20359c0.44003-3.212 1.5133-6.7068 1.8031-7.6151l-1.429-0.45597zm-1.8603 7.8675c-0.12389 0.90439-0.20235 1.8035-0.20235 2.6354h1.5c0-0.7432 0.07052-1.5708 0.18846-2.4318l-1.4861-0.20359zm4.7476-0.21461c-1.1579 0-2.5129-0.17096-3.8685-0.42114l-0.27223 1.4751c1.3977 0.2579 2.8533 0.446 4.1407 0.446v-1.5zm-3.8685-0.42114c-2.2357-0.41261-4.4023-1.0272-5.555-1.3768l-0.43541 1.4354c1.1763 0.35681 3.4034 0.98928 5.7181 1.4165l0.27223-1.4751zm13.248-1.3594c0.0119-0.0062 0.0265-0.01231 0.0422-0.01708l0.4354 1.4354c0.0754-0.02287 0.1463-0.05216 0.2136-0.08711l-0.6912-1.3312zm-19.496 1.3026c0.07897 0.04829 0.16463 0.08739 0.25691 0.11538l0.43541-1.4354c0.03326 0.01009 0.06391 0.02425 0.09026 0.04037l-0.78258 1.2797z" fill="#fff"/>
</g>
<defs>
<clipPath id="a">
<rect width="24" height="24" fill="#fff"/>
</clipPath>
</defs>
</svg>

<!DOCTYPE svg PUBLIC "-//W3C//DTD SVG 1.1//EN" "http://www.w3.org/Graphics/SVG/1.1/DTD/svg11.dtd">
<!-- Uploaded to: SVG Repo, www.svgrepo.com, Transformed by: SVG Repo Mixer Tools -->
<svg width="800px" height="800px" viewBox="-2.4 -2.4 28.80 28.80" fill="none" xmlns="http://www.w3.org/2000/svg" stroke="#ffffff">
<g id="SVGRepo_bgCarrier" stroke-width="0"/>
<g id="SVGRepo_tracerCarrier" stroke-linecap="round" stroke-linejoin="round"/>
<g id="SVGRepo_iconCarrier"> <g id="style=linear" clip-path="url(#clip0_1_1825)"> <g id="web"> <path id="vector" d="M7.8 12L7.05 12L7.8 12ZM16.2 12H16.95H16.2ZM12 16.2V16.95V16.2ZM14.1729 22.2749L14.3273 23.0088L14.1729 22.2749ZM9.82712 22.2749L9.67269 23.0088L9.82712 22.2749ZM2.27554 8.03225L1.58122 7.74867H1.58122L2.27554 8.03225ZM1.7251 14.1729L0.991173 14.3273L1.7251 14.1729ZM9.82712 1.7251L9.67269 0.991173L9.82712 1.7251ZM14.1729 1.7251L14.3273 0.991174L14.1729 1.7251ZM21.6399 8.07014L21.8576 8.78785L21.6399 8.07014ZM2.35887 8.06976L2.14116 8.78747L2.35887 8.06976ZM21.0312 8.3185C21.4944 9.45344 21.75 10.6959 21.75 12H23.25C23.25 10.4983 22.9553 9.06352 22.42 7.75174L21.0312 8.3185ZM21.75 12C21.75 12.6927 21.6779 13.3678 21.541 14.0184L23.0088 14.3273C23.167 13.5757 23.25 12.7972 23.25 12H21.75ZM21.541 14.0184C20.7489 17.7827 17.7828 20.7489 14.0184 21.541L14.3273 23.0088C18.6735 22.0943 22.0943 18.6735 23.0088 14.3273L21.541 14.0184ZM14.0184 21.541C13.3678 21.6779 12.6927 21.75 12 21.75V23.25C12.7972 23.25 13.5757 23.167 14.3273 23.0088L14.0184 21.541ZM12 21.75C11.3072 21.75 10.6322 21.6779 9.98156 21.541L9.67269 23.0088C10.4242 23.167 11.2028 23.25 12 23.25V21.75ZM2.25 12C2.25 10.6949 2.50601 9.45149 2.96986 8.31584L1.58122 7.74867C1.0451 9.06127 0.75 10.4971 0.75 12H2.25ZM9.98156 21.541C6.21724 20.7489 3.25112 17.7827 2.45903 14.0184L0.991173 14.3273C1.90571 18.6735 5.32647 22.0943 9.67269 23.0088L9.98156 21.541ZM2.45903 14.0184C2.32213 13.3678 2.25 12.6927 2.25 12H0.75C0.75 12.7972 0.83303 13.5757 0.991173 14.3273L2.45903 14.0184ZM2.96986 8.31584C4.17707 5.36016 6.79381 3.1298 9.98155 2.45903L9.67269 0.991173C5.99032 1.76602 2.97369 4.33941 1.58122 7.74867L2.96986 8.31584ZM9.98155 2.45903C10.6322 2.32213 11.3072 2.25 12 2.25V0.75C11.2028 0.75 10.4242 0.83303 9.67269 0.991173L9.98155 2.45903ZM12 2.25C12.6927 2.25 13.3678 2.32213 14.0184 2.45903L14.3273 0.991174C13.5757 0.833031 12.7972 0.75 12 0.75V2.25ZM14.0184 2.45903C17.2071 3.13 19.8245 5.3615 21.0312 8.3185L22.42 7.75174C21.0281 4.34096 18.0108 1.76625 14.3273 0.991174L14.0184 2.45903ZM13.4584 1.95309C13.7482 2.8614 14.8215 6.35621 15.2615 9.5682L16.7476 9.36461C16.289 6.01664 15.1813 2.41835 14.8874 1.49712L13.4584 1.95309ZM15.2615 9.5682C15.3795 10.4292 15.45 11.2568 15.45 12L16.95 12C16.95 11.1681 16.8715 10.269 16.7476 9.36461L15.2615 9.5682ZM21.4222 7.35242C20.2692 7.70212 18.1033 8.3164 15.8685 8.72886L16.1407 10.204C18.4546 9.7769 20.6809 9.14473 21.8576 8.78785L21.4222 7.35242ZM15.8685 8.72886C14.5129 8.97904 13.1579 9.15 12 9.15L12 10.65C13.2874 10.65 14.743 10.4619 16.1407 10.204L15.8685 8.72886ZM15.45 12C15.45 13.1009 15.2954 14.3808 15.0647 15.671L16.5413 15.935C16.7797 14.6019 16.95 13.2252 16.95 12L15.45 12ZM15.0647 15.671C14.5591 18.4992 13.7097 21.2593 13.4584 22.0469L14.8874 22.5029C15.145 21.6956 16.0181 18.8613 16.5413 15.935L15.0647 15.671ZM22.0469 13.4584C21.2593 13.7097 18.4992 14.5591 15.671 15.0647L15.935 16.5413C18.8613 16.0181 21.6956 15.145 22.5029 14.8874L22.0469 13.4584ZM15.671 15.0647C14.3808 15.2954 13.1009 15.45 12 15.45L12 16.95C13.2252 16.95 14.6019 16.7797 15.935 16.5413L15.671 15.0647ZM12 15.45C10.8991 15.45 9.61923 15.2954 8.32897 15.0647L8.06496 16.5413C9.39807 16.7797 10.7748 16.95 12 16.95L12 15.45ZM8.32897 15.0647C5.50076 14.5591 2.74066 13.7097 1.95309 13.4584L1.49712 14.8874C2.30437 15.145 5.13873 16.0181 8.06496 16.5413L8.32897 15.0647ZM7.05 12C7.05 13.2252 7.22032 14.6019 7.45867 15.935L8.93526 15.671C8.70456 14.3808 8.55 13.1009 8.55 12L7.05 12ZM7.45867 15.935C7.98188 18.8613 8.85504 21.6956 9.11261 22.5029L10.5416 22.0469C10.2903 21.2593 9.44094 18.4992 8.93526 15.671L7.45867 15.935ZM9.11261 1.49712C8.81867 2.41835 7.711 6.01664 7.25235 9.36461L8.73846 9.5682C9.17849 6.35621 10.2518 2.8614 10.5416 1.95309L9.11261 1.49712ZM7.25235 9.36461C7.12846 10.269 7.05 11.1681 7.05 12L8.55 12C8.55 11.2568 8.62052 10.4292 8.73846 9.5682L7.25235 9.36461ZM12 9.15C10.8421 9.15 9.4871 8.97904 8.13152 8.72886L7.85929 10.204C9.25697 10.4619 10.7126 10.65 12 10.65L12 9.15ZM8.13152 8.72886C5.89586 8.31625 3.72921 7.70168 2.57657 7.35205L2.14116 8.78747C3.3175 9.14428 5.54457 9.77675 7.85929 10.204L8.13152 8.72886ZM21.38 7.3695C21.3919 7.3633 21.4065 7.35719 21.4222 7.35242L21.8576 8.78785C21.933 8.76498 22.0039 8.73569 22.0712 8.70074L21.38 7.3695ZM1.88425 8.67209C1.96322 8.72038 2.04888 8.75948 2.14116 8.78747L2.57657 7.35205C2.60983 7.36214 2.64048 7.3763 2.66683 7.39242L1.88425 8.67209Z" fill="#ffffff"/> </g> </g> <defs> <clipPath id="clip0_1_1825"> <rect width="24" height="24" fill="white"/> </clipPath> </defs> </g>
</svg>
